img/piratos-title.svg

<svg width="495" height="193" viewBox="0 0 495 193" fill="none" xmlns="http://www.w3.org/2000/svg">
  <g filter="url(#filter0_d_426_15213)">
    <path fill-rule="evenodd" clip-rule="evenodd" d="M404.404 78.5119C406.174 99.6894 386.451 133.88 361.164 135.921C344.475 137.197 328.038 124.949 326.268 102.751C324.498 81.3185 344.728 46.1078 371.026 45.3423C387.209 44.5769 402.634 56.8241 404.404 78.5119ZM83.0098 118.06V99.6894L69.8607 86.4216L84.7799 71.3677L99.6991 86.4216L86.55 99.6894V118.06H94.8946C122.71 89.9937 107.538 46.8732 65.0562 41.7702V118.06H83.0098ZM162.41 16L155.33 23.1442H139.146V41.7702H141.928L164.939 18.5515L162.41 16ZM233.466 96.8827V95.8621C228.914 94.5864 225.121 92.0349 222.593 88.7179C209.191 71.3677 224.616 46.3629 247.879 46.3629C259.258 46.3629 272.155 53.252 272.155 67.0301V120.612C272.155 123.418 273.419 129.797 279.235 133.88H255.718C253.19 131.583 252.178 125.46 252.178 122.653V86.9319L231.443 107.854L245.098 121.632L230.179 136.686C224.868 131.328 219.811 126.225 214.501 120.867V97.1379H233.466V96.8827ZM435.254 87.6973C426.404 79.7876 416.289 69.5816 423.875 58.6101C431.714 58.355 446.127 63.7132 455.736 65.2441L435.254 87.6973ZM453.713 72.6434L479 45.3423L476.471 43.046C472.173 47.8938 464.081 49.935 457.759 48.9144C452.449 48.149 446.127 46.6181 437.783 45.0872C427.162 43.046 396.06 76.4707 422.611 101.731L392.519 134.135L395.048 136.431L399.347 131.838C403.646 127.501 410.979 125.97 425.898 131.838C431.208 133.88 436.771 135.41 442.081 135.921C455.736 137.197 492.402 81.3186 453.966 73.9192V72.6434H453.713ZM440.058 87.4421L421.093 107.854C428.679 114.998 445.116 121.122 455.23 121.377C464.839 108.365 454.472 89.4834 440.058 87.4421ZM204.639 45.5975L189.467 60.9065V46.6181C181.628 48.149 173.789 48.4041 165.95 48.149C167.973 49.4247 169.743 51.9762 169.743 54.2726V121.377C169.743 132.093 182.64 137.197 187.191 133.88L202.363 122.143C191.996 122.653 189.72 117.295 189.72 114.488V63.9683H193.26L204.892 75.7052L219.811 60.6513L204.639 45.5975ZM123.469 71.6228C123.469 101.731 95.6532 133.624 74.4123 133.624H65.562V156.843L45.5855 177V133.88H20.0459L28.3905 125.46C33.4478 120.357 37.2408 118.315 44.8269 118.315H45.5855V77.4913C45.5855 67.7956 48.1142 62.9477 54.6887 56.3138L62.0218 48.9144V42.0254C45.3326 41.0048 29.6548 47.3835 16 57.3344C22.0688 39.4739 37.9994 23.1442 67.5849 23.1442C104.504 22.6339 123.469 44.832 123.469 71.6228ZM341.693 48.149H307.303V32.5848L276.453 63.7132H287.327V119.081C287.327 129.797 304.522 137.962 309.073 134.39L325.004 122.398C314.636 122.908 307.05 116.019 307.05 111.171V63.7132H326.015L341.693 48.149ZM134.848 54.2726C134.848 51.9762 133.33 49.1696 131.055 48.149C138.894 48.4041 146.732 47.8938 154.571 46.6181V125.97C154.571 128.777 154.571 131.328 156.088 133.88H133.33C134.848 131.328 134.848 128.777 134.848 125.97V54.2726ZM252.178 72.6434C252.178 62.6926 244.086 58.0998 237.006 58.0998C218.041 58.0998 215.512 91.7797 242.063 93.3106L246.868 88.4628C251.419 83.6149 252.178 78.0016 252.178 72.6434ZM381.393 120.612C387.968 83.1046 384.428 53.7623 348.773 60.6513C342.452 98.1585 345.992 127.246 381.393 120.612Z" fill="white"/>
  </g>
  <defs>
    <filter id="filter0_d_426_15213" x="0" y="0" width="495" height="193" filterUnits="userSpaceOnUse" color-interpolation-filters="sRGB">
      <feFlood flood-opacity="0" result="BackgroundImageFix"/>
      <feColorMatrix in="SourceAlpha" type="matrix" values="0 0 0 0 0 0 0 0 0 0 0 0 0 0 0 0 0 0 127 0" result="hardAlpha"/>
      <feOffset/>
      <feGaussianBlur stdDeviation="8"/>
      <feComposite in2="hardAlpha" operator="out"/>
      <feColorMatrix type="matrix" values="0 0 0 0 0.245417 0 0 0 0 0.764192 0 0 0 0 0.775 0 0 0 1 0"/>
      <feBlend mode="normal" in2="BackgroundImageFix" result="effect1_dropShadow_426_15213"/>
      <feBlend mode="normal" in="SourceGraphic" in2="effect1_dropShadow_426_15213" result="shape"/>
    </filter>
  </defs>
</svg>

<svg xmlns="http://www.w3.org/2000/svg" width="495" height="193" fill="none"><g filter="url(#a)"><path fill="#fff" fill-rule="evenodd" d="M404.404 78.512c1.77 21.177-17.953 55.368-43.24 57.409-16.689 1.276-33.126-10.972-34.896-33.17-1.77-21.433 18.46-56.643 44.758-57.409 16.183-.765 31.608 11.482 33.378 33.17ZM83.01 118.06V99.69L69.86 86.421l14.92-15.054L99.7 86.422 86.55 99.689v18.371h8.345c27.815-28.066 12.643-71.187-29.839-76.29v76.29H83.01ZM162.41 16l-7.08 7.144h-16.184V41.77h2.782l23.011-23.219L162.41 16Zm71.056 80.883v-1.02c-4.552-1.277-8.345-3.828-10.873-7.145-13.402-17.35 2.023-42.355 25.286-42.355 11.379 0 24.276 6.889 24.276 20.667v53.582c0 2.806 1.264 9.185 7.08 13.268h-23.517c-2.528-2.297-3.54-8.42-3.54-11.227V86.932l-20.735 20.922 13.655 13.778-14.919 15.054-15.678-15.819v-23.73h18.965v-.254Zm201.788-9.186c-8.85-7.91-18.965-18.115-11.379-29.087 7.839-.255 22.252 5.103 31.861 6.634l-20.482 22.453Zm18.459-15.054L479 45.343l-2.529-2.297c-4.298 4.848-12.39 6.889-18.712 5.868-5.31-.765-11.632-2.296-19.976-3.827-10.621-2.041-41.723 31.384-15.172 56.644l-30.092 32.404 2.529 2.296 4.299-4.593c4.299-4.337 11.632-5.868 26.551 0 5.31 2.042 10.873 3.572 16.183 4.083 13.655 1.276 50.321-54.602 11.885-62.002v-1.276h-.253Zm-13.655 14.8-18.965 20.411c7.586 7.144 24.023 13.268 34.137 13.523 9.609-13.012-.758-31.894-15.172-33.935ZM204.639 45.596l-15.172 15.31V46.617c-7.839 1.531-15.678 1.786-23.517 1.531 2.023 1.276 3.793 3.827 3.793 6.124v67.104c0 10.716 12.897 15.82 17.448 12.503l15.172-11.737c-10.367.51-12.643-4.848-12.643-7.655v-50.52h3.54l11.632 11.737 14.919-15.054-15.172-15.054Zm-81.17 26.026c0 30.108-27.816 62.001-49.057 62.001h-8.85v23.219L45.586 177v-43.12h-25.54l8.345-8.42c5.057-5.103 8.85-7.145 16.436-7.145h.759V77.491c0-9.695 2.528-14.543 9.103-21.177l7.333-7.4v-6.889c-16.69-1.02-32.367 5.358-46.022 15.31 6.069-17.861 22-34.19 51.585-34.19 36.919-.511 55.884 21.687 55.884 48.478Zm218.224-23.474h-34.39V32.585l-30.85 31.128h10.874v55.368c0 10.716 17.195 18.881 21.746 15.309l15.931-11.992c-10.368.51-17.954-6.379-17.954-11.227V63.713h18.965l15.678-15.564Zm-206.845 6.124c0-2.297-1.518-5.103-3.793-6.124 7.839.255 15.677-.255 23.516-1.53v79.351c0 2.807 0 5.358 1.517 7.91H133.33c1.518-2.552 1.518-5.103 1.518-7.91V54.273Zm117.33 18.37c0-9.95-8.092-14.543-15.172-14.543-18.965 0-21.494 33.68 5.057 35.21l4.805-4.847c4.551-4.848 5.31-10.461 5.31-15.82Zm129.215 47.969c6.575-37.507 3.035-66.85-32.62-59.96-6.321 37.507-2.781 66.594 32.62 59.96Z" clip-rule="evenodd"/></g><defs><filter id="a" width="495" height="193" x="0" y="0" color-interpolation-filters="sRGB" filterUnits="userSpaceOnUse"><feFlood flood-opacity="0" result="BackgroundImageFix"/><feColorMatrix in="SourceAlpha" result="hardAlpha" values="0 0 0 0 0 0 0 0 0 0 0 0 0 0 0 0 0 0 127 0"/><feOffset/><feGaussianBlur stdDeviation="8"/><feComposite in2="hardAlpha" operator="out"/><feColorMatrix values="0 0 0 0 0.245417 0 0 0 0 0.764192 0 0 0 0 0.775 0 0 0 1 0"/><feBlend in2="BackgroundImageFix" result="effect1_dropShadow_426_15213"/><feBlend in="SourceGraphic" in2="effect1_dropShadow_426_15213" result="shape"/></filter></defs></svg>
